X:19
T:Prelude in B minor (BWV 855)
C:Bach, J.S.
M:4/4
L:1/16
Q:1/4=66
K:Bmin
|:BDEF BDEF|ACFA ACFA|GBDG GBDG|ACFA ACFA|
BDEF BDEF|ACFA ACFA|GBDG GBDG|B8:|

